X: 15468
T: Glencoe Diversion, The
R: jig
M: 6/8
K: Gmajor
|:G2 d BdG dBd Ggd|eae bea ebe _bea|
gbg a^ab =age edB|deg edB ABA G>GG:|
|:GgG eG(d d>)dd a^ab|age egg deg gdB|
GgG eG(d d>)dd a^ab|deg gdB ABA G>GG:|

